svgs/sharp-light/1.svg

<svg xmlns="http://www.w3.org/2000/svg" viewBox="0 0 256 512"><!--! Font Awesome Pro 6.6.0 by @fontawesome - https://fontawesome.com License - https://fontawesome.com/license (Commercial License) Copyright 2024 Fonticons, Inc. --><path d="M16 143.4l3.4-2.5L112 73.6 112 448l-96 0L0 448l0 32 16 0 112 0 112 0 16 0 0-32-16 0-96 0 0-400 0-16-16 0-8 0-5.2 0-4.2 3.1L16 103.9l0 39.6z"/></svg>

<svg xmlns="http://www.w3.org/2000/svg" viewBox="0 0 256 512"><!--! Font Awesome Pro 6.4.0 by @fontawesome - https://fontawesome.com License - https://fontawesome.com/license (Commercial License) Copyright 2023 Fonticons, Inc. --><path d="M16 143.4l3.4-2.5L112 73.6V448H16 0v32H16 128 240h16V448H240 144V48 32H128h-8-5.2l-4.2 3.1L16 103.9v39.6z"/></svg>
